X: 131011
T: TEVIOT BRIDGE
Q: "Scotch Jig."
R: Jig.
%R: jig
B: James Kerr "Merry Melodies" v.1 p.31 s.0 #11
Z: 2016 John Chambers <jc:trillian.mit.edu>
M: 6/8
L: 1/8
K: A
uf |\
ecA uE2uA | vF2vA E3 | EFE E2c | d2c B2A |\
ecA E2A | F2A E2c | d2f ecA | B3 A2 :|
|: uc |\
ecA Ace | fgf fga | ecA AcA | BGE E2c |\
ecA Ace | agf edc | dfa ecA | B3 A2 :|

%%sep 1 1 500
%%sep 1 1 500

